!!!!SEGMENT: pl-kk--kk-i-7--044_anonim--gaude-maria-virgo.krn
!!!cenid: 16xx:843
!!!COM: Anonim
!!!COM-rismID: pe30004985
!!!CDT:
!!!CNT:
!!!OTL: Gaude Maria virgo
!!!PDT:
!!!AGN: Sacred
!!!SMS-siglum: PL-Kk
!!!SMS-shelfmark: Kk.I.7
!!!SMS-shelfwork: 044 W
!!!SMS-variant:
!!!SMS-altvar:
!!!NIFC-rismSourceID: 300258121
!!!NIFC-islandoraID: pl-kk:1956
!!!URL-pdf-islandora: https://repozytorium.nifc.pl/islandora/object/pl-kk%3A1956/datastream/PDF/view
!!!URL-scan: https://polish.musicsources.pl/pl/lokalizacje/galeria/rekopisy/6140 @EN{Scan on Polish Music Herritage in Open Access Website} @PL{Skany w portalu Dziedzictwo Muzyki Polskiej w otwartym dostępie}
!!!ONB-nifc: UWAGA: C (skan 0039, s.72), A (0123, s.66), T(0199, s.62), B(0289, s.64). Następny utwór: Missa
!!!AIN: 1 alto 1 bass 1 soprn 1 tenor
!!!key:
**kern	**text	**kern	**text	**kern	**text	**kern	**text
*part4	*part4	*part3	*part3	*part2	*part2	*part1	*part1
*staff4	*staff4	*staff3	*staff3	*staff2	*staff2	*staff1	*staff1
*Ibass	*	*Itenor	*	*Ialto	*	*Isoprn	*
*I"BASSVS.	*	*I"TENOR.	*	*I"ALTVS.	*	*I"CANTVS.	*
*I'B	*	*I'T	*	*I'A	*	*I'S	*
*clefF4	*	*clefC4	*	*clefC3	*	*clefC1	*
*k[b-]	*	*k[b-]	*	*k[b-]	*	*k[b-]	*
*F:	*	*F:	*	*F:	*	*F:	*
*M2/1	*	*M2/1	*	*M2/1	*	*M2/1	*
*met(C|)	*	*met(C|)	*	*met(C|)	*	*met(C|)	*
=1-	=1-	=1-	=1-	=1-	=1-	=1-	=1-
!LO:TX:t=P:problem=w źródle znaki przykluczowe BB- B-, zapisane jeden nad drugim, w pionie	!	!	!	!	!	!	!
*	*	*lig	*	*	*	*	*
!	!	!	!	!LO:TX:t=P:problem=kreska pseudotaktowa	!	!LO:TX:t=P:problem=kreska pseudotaktowa	!
!	!	!	!	!LO:N:vis=1	!	!	!
!LO:TX:t=P:problem=w źródle "III." zapisane przed pierwszym taktem, na wysokości pięciolinii	!	!LO:TX:t=P:problem=w źródle "III." zapisane przed pierwszym taktem, na wysokości pięciolinii	!	!LO:TX:t=P:problem=w źródle "III" zapisane przed pierwszym taktem, na wysokości pięciolinii	!	!LO:TX:t=P:problem=w źródle "III" zapisane przed pierwszym taktem, na wysokości pięciolinii	!
!LO:TX:a:i:t=III.	!	!LO:TX:a:i:t=III.	!	!LO:TX:a:i:t=III	!	!LO:TX:a:i:t=III	!
!LO:TX:a:i:t=Post 7gesimam.	!	!LO:TX:a:i:t=Post 7gesimam.	!	!	!	!LO:TX:a:i:t=Post 7gesimam	!
!	!	!	!	!LO:N:vis=1	!	!	!
0rA	.	1F	Gau-	0rg	.	0r	.
.	.	1A	.	.	.	.	.
=2-	=2-	=2-	=2-	=2-	=2-	=2-	=2-
!LO:TX:t=P:problem=kreska pseudotaktowa	!	!	!	!	!	!	!
1rA	.	1c	.	1F	Gau-	1f	Gau-
*2\right	*	*	*	*	*	*	*
*	*	*Xlig	*	*	*	*	*
*	*	*lig	*	*	*	*	*
2r	.	1c	-de	2.A/	.	1a	.
1F\	Gau-	.	.	.	.	.	.
!	!	!	!	!LO:TX:t=P:problem=kreska pseudotaktowa	!	!	!
.	.	.	.	4B-/	.	.	.
=3-	=3-	=3-	=3-	=3-	=3-	=3-	=3-
!	!	!LO:TX:t=P:problem=kreska pseudotaktowa	!	!	!	!LO:TX:t=P:problem=kreska pseudotaktowa	!
.	.	1A	.	4c/	.	1cc	.
.	.	.	.	4F/	.	.	.
1A	.	.	.	1f	.	.	.
*	*	*Xlig	*	*	*	*	*
*	*	*	*	*	*	*2\right	*
.	.	1c	Ma-	.	.	2a\	.
1c\	.	.	.	4e\	.	4g/	.
!	!	!	!	!LO:TX:t=P:problem=kreska pseudotaktowa	!	!LO:TX:t=P:problem=kreska pseudotaktowa	!
.	.	.	.	4d\	.	4f/	.
=4-	=4-	=4-	=4-	=4-	=4-	=4-	=4-
*	*	*	*	*2\right	*	*	*
.	.	(>1c	-ri-	2e\	-de	1g	.
!LO:TX:t=P:problem=kreska pseudotaktowa	!	!	!	!	!	!	!
2C/	-de	.	.	2c/	Ma-	.	.
2BB-/	Ma-	1d)	.	1.f	-ri-	2b-\	-de
!	!	!	!	!	!	!LO:TX:t=P:problem=kreska pseudotaktowa	!
1D\	-ri-	.	.	.	.	2a\	Ma-
=5-	=5-	=5-	=5-	=5-	=5-	=5-	=5-
*	*	*lig	*	*	*	*	*
.	.	1A	-a	.	.	2d/	-ri-
!	!	!	!	!LO:TX:t=P:problem=kreska pseudotaktowa	!	!LO:TX:t=P:problem=kreska pseudotaktowa	!
2C/	-a	.	.	2e\	-a	2e/	-a
!LO:TX:t=P:problem=kreska pseudotaktowa	!	!	!	!	!	!	!
1BB-	Vir-	1B-	.	1d	Vir-	2f/	Vir-
!	!	!	!	!	!	!LO:TX:t=P:problem=kreska pseudotaktowa	!
.	.	.	.	.	.	2g/	.
=6-	=6-	=6-	=6-	=6-	=6-	=6-	=6-
!LO:TX:t=P:global:problem=rozdzielacz słów / znak oddechu	!	!LO:TX:t=P:problem=kreska pseudotaktowa	!	!	!	!	!
1.FF,	-go	1c	.	2c\	-go	2.a\	.
.	.	.	.	1f	gau-	.	.
.	.	.	.	.	.	4b-\	.
*	*	*Xlig	*	*	*	*	*
*	*	*lig	*	*	*	*	*
!	!	!	!	!	!	!LO:TX:t=P:problem=kreska pseudotaktowa	!
.	.	1F	Vir-	.	.	1cc	.
!LO:TX:t=P:problem=kreska pseudotaktowa	!	!	!	!LO:TX:t=P:problem=kreska pseudotaktowa	!	!	!
2F\	Ma-	.	.	2f\	-de	.	.
=7-	=7-	=7-	=7-	=7-	=7-	=7-	=7-
*	*	*	*	*	*ij	*	*
1.F	-ri-	1A	.	2f\	gau-	2.cc\	.
.	.	.	.	4e\	.	.	.
.	.	.	.	4d\	.	4b-\	.
!	!	!	!	!LO:TX:t=P:global:problem=rozdzielacz słów / znak oddechu	!	!	!
.	.	1c	.	2c,\	-de	2a\	.
*	*	*	*	*	*Xij	*	*
4E\	.	.	.	1f\	Ma-	4g/	.
!LO:TX:t=P:problem=kreska pseudotaktowa	!	!	!	!	!	!	!
4D\	.	.	.	.	.	4f/	.
*	*	*Xlig	*	*	*	*	*
=8-	=8-	=8-	=8-	=8-	=8-	=8-	=8-
*	*	*lig	*	*	*	*	*
2C,/	-a	1c	-go	.	.	1g	.
!LO:TX:t=P:problem=kreska pseudotaktowa	!	!	!	!LO:TX:t=P:problem=kreska pseudotaktowa	!	!	!
2C/	Ma-	.	.	2e\	.	.	.
!	!	!	!	!	!	!LO:TX:t=P:global:problem=rozdzielacz słów / znak oddechu; zapisaywane w źródle na pięciolinii	!
!	!	!	!	!	!	!LO:TX:t=P:problem=kreska pseudotaktowa	!
2F\	-ri-	1A	.	2c\	-ri-	1f,	-go;
!LO:TX:t=P:problem=kreska pseudotaktowa	!	!	!	!	!	!	!
(>[>2F\	-a	.	.	1f\	-a	.	.
=9-	=9-	=9-	=9-	=9-	=9-	=9-	=9-
!	!	!LO:TX:t=P:global:problem=rozdzielacz słów / znak oddechu; zapisywane w źródle na pięciolinii	!	!	!	!	!
!LO:N:xstem:cue	!	!LO:TX:t=P:problem=kreska pseudotaktowa	!	!	!	!	!
4F\]	.	1c,	.	.	.	(>1a	cun-
4G\	.	.	.	.	.	.	.
4A\	.	.	.	4e\	.	.	.
!LO:TX:t=P:problem=kreska pseudotaktowa	!	!	!	!LO:TX:t=P:problem=kreska pseudotaktowa	!	!	!
4B-\)	.	.	.	4d\	.	.	.
*	*	*Xlig	*	*	*	*	*
*	*	*lig	*	*	*	*	*
2c\	Vir-	1c	cun-	2e\	Vir-	2g\)	.
!	!	!	!	!	!	!LO:TX:t=P:problem=kreska pseudotaktowa	!
!LO:TX:t=P:problem=kreska pseudotaktowa	!	!	!	!	!	!	!
2A,\	-go	.	.	2c,/	-go	2a\	-ctas
=10-	=10-	=10-	=10-	=10-	=10-	=10-	=10-
2.BB-/	cun-	1d	.	1.f	cun-	2.d/	cun-
!LO:TX:t=P:problem=kreska pseudotaktowa	!	!	!	!	!	!	!
4C/	.	.	.	.	.	4e/	.
*	*	*Xlig	*	*	*	*	*
*	*	*lig	*	*	*	*	*
2D/	.	1A	-ctas	.	.	4f/	.
.	.	.	.	.	.	4g/	.
!LO:TX:t=P:problem=kreska pseudotaktowa	!	!	!	!	!	!	!
2C,/	-ctas	.	.	2e\	-ctas	1a\	.
=11-	=11-	=11-	=11-	=11-	=11-	=11-	=11-
2.BB-/	hae-	1B-	.	2.d\	hae-	.	.
!	!	!	!	!	!	!LO:TX:t=P:problem=kreska pseudotaktowa	!
.	.	.	.	.	.	2g\	-ctas
*	*	*	*	*custos:c	*	*	*
!	!	!	!	!LO:TX:t=P:problem=kreska pseudotaktowa	!	!	!
!LO:TX:t=P:problem=kreska pseudotaktowa	!	!	!	!	!	!	!
4BB-/	-re-	.	.	4d\	-re-	.	.
!	!	!	!	!LO:LB:g=original	!	!	!
!	!	!LO:TX:t=P:problem=kreska pseudotaktowa	!	!	!	!	!
2AA,/	-ses	1c	.	2c,/	-ses	2a\	hae-
1C/	cun-	.	.	1G/	cun-	2e/	-re-
*	*	*Xlig	*	*	*	*	*
=12-	=12-	=12-	=12-	=12-	=12-	=12-	=12-
*	*	*	*	*	*	*custos:e	*
!	!	!	!	!	!	!LO:TX:t=P:problem=kreska pseudotaktowa	!
.	.	1c	hae-	.	.	1e	-ses
!LO:TX:t=P:problem=kreska pseudotaktowa	!	!	!	!LO:TX:t=P:problem=kreska pseudotaktowa	!	!	!
2AA/	-ctas	.	.	2A/	-ctas	.	.
!LO:LB:g=original	!	!	!	!	!	!LO:LB:g=original	!
2.C/	hae-	1c	-re-	1G	hae-	1e	cun-
4C/	-re-	.	.	.	.	.	.
=13-	=13-	=13-	=13-	=13-	=13-	=13-	=13-
!LO:TX:t=P:problem=kreska pseudotaktowa	!	!	!	!	!	!	!
*	*	*lig	*	*	*	*	*
1FF	-ses,	1A	-ses	2.c/	.	1f	-ctas
.	.	.	.	4c/	-re-	.	.
!	!	!LO:TX:t=P:problem=kreska pseudotaktowa	!	!LO:TX:t=P:problem=kreska pseudotaktowa	!	!	!
2r	.	1c	.	1F	-ses	2.f/	hae-
1F\	so-	.	.	.	.	.	.
.	.	.	.	.	.	4f/	-re-
*	*	*Xlig	*	*	*	*	*
=14-	=14-	=14-	=14-	=14-	=14-	=14-	=14-
*	*	*lig	*	*	*	*	*
!	!	!	!	!	!	!LO:TX:t=P:problem=kreska pseudotaktowa	!
.	.	1c	so-	2rA	.	1c	-ses
!LO:TX:t=P:problem=kreska pseudotaktowa	!	!	!	!	!	!	!
2E\	.	.	.	2G/	so-	.	.
1D	.	1F	.	1A	.	2re	.
.	.	.	.	.	.	2f/	so-
*	*	*Xlig	*	*	*	*	*
=15-	=15-	=15-	=15-	=15-	=15-	=15-	=15-
!LO:TX:t=P:problem=kreska pseudotaktowa	!	!	!	!	!	!	!
1GG,	-la	1G	-la	2B-/	.	2.d/	.
!	!	!	!	!LO:TX:t=P:problem=kreska pseudotaktowa	!	!	!
.	.	.	.	2G/	.	.	.
.	.	.	.	.	.	4e/	.
*	*	*custos:B-	*	*	*	*	*
!LO:TX:t=P:problem=kreska pseudotaktowa	!	!LO:TX:t=P:problem=kreska pseudotaktowa	!	!	!	!	!
1D	in-	1A	.	2F,/	-la	2f/	.
!	!	!	!	!	!	!LO:TX:t=P:problem=kreska pseudotaktowa	!
.	.	.	.	2f\	in-	2d/	-la
!	!	!LO:LB:g=original	!	!	!	!	!
=16-	=16-	=16-	=16-	=16-	=16-	=16-	=16-
*	*	*lig	*	*	*	*	*
2BB-/	-te-	1B-	.	2d,\	-ter-	1dd	in-
!LO:TX:t=P:problem=kreska pseudotaktowa	!	!	!	!	!	!	!
2BB-/	-re-	.	.	1f	.	.	.
!LO:TX:t=P:problem=kreska pseudotaktowa	!	!	!	!	!	!	!
1C	-mi-	1G	.	.	.	1cc	-te-
!	!	!	!	!LO:TX:t=P:problem=kreska pseudotaktowa	!	!	!
.	.	.	.	2e\	.	.	.
=17-	=17-	=17-	=17-	=17-	=17-	=17-	=17-
!	!	!LO:TX:t=P:problem=kreska pseudotaktowa	!	!	!	!	!
2FF,/	-sti	1F	.	2c\	-e-	2a\	-re-
!LO:TX:t=P:problem=kreska pseudotaktowa	!	!	!	!	!	!	!
2BB-/	so-	.	.	1d	-mi-	2b-\	-mi-
*	*	*Xlig	*	*	*	*	*
!LO:TX:t=P:problem=kreska pseudotaktowa	!	!	!	!	!	!LO:TX:t=P:problem=kreska pseudotaktowa	!
1GG,	-la	1G	in-	.	.	1b-	-sti
!	!	!	!	!LO:TX:t=P:problem=kreska pseudotaktowa	!	!	!
.	.	.	.	2d\	-ſti	.	.
=18-	=18-	=18-	=18-	=18-	=18-	=18-	=18-
!LO:TX:t=P:problem=kreska pseudotaktowa	!	!	!	!	!	!	!
*	*	*lig	*	*	*	*	*
!	!	!	!	!LO:TX:t=P:problem=brak połowy taktu nr 18 [niezgodność pionów]	!	!	!
1C	in-	1G	-ter-	1ryy	.	2g,\	.
.	.	.	.	.	.	4a\	in-
.	.	.	.	.	.	4b-\	.
2FF/	-te-	1F	.	2A/	in-	2cc\	-ter-
1BB-/	-re-	.	.	2d.\	.	2.f/	.
*	*	*Xlig	*	*	*	*	*
=19-	=19-	=19-	=19-	=19-	=19-	=19-	=19-
*	*	*lig	*	*	*	*	*
.	.	1F	-e-	.	.	.	.
.	.	.	.	4c/	.	4g/	.
!LO:TX:t=P:problem=kreska pseudotaktowa	!	!	!	!LO:TX:t=P:problem=kreska pseudotaktowa	!	!LO:TX:t=P:problem=kreska pseudotaktowa	!
2AA/	.	.	.	[<2c/	-ter-	2a\	-e-
!LO:TX:t=P:problem=kreska pseudotaktowa	!	!	!	!	!	!	!
1D	-mi-	1D	.	2c/]	.	1f	-mi-
.	.	.	.	2B-/	-e-	.	.
*	*	*Xlig	*	*	*	*	*
=20-	=20-	=20-	=20-	=20-	=20-	=20-	=20-
1C	.	1E	-mi-	1c	-mi-	1g	.
!	!	!LO:TX:t=P:problem=kreska pseudotaktowa	!	!LO:TX:t=P:problem=kreska pseudotaktowa	!	!	!
2FF,/	-sti	1F,	-sſti,	1c	.	1.a	-sti:
!LO:TX:t=P:problem=kreska pseudotaktowa	!	!	!	!	!	!	!
2F\	Quae	.	.	.	.	.	.
=21-	=21-	=21-	=21-	=21-	=21-	=21-	=21-
!LO:TX:t=P:problem=kreska pseudotaktowa	!	!	!	!	!	!	!
*	*	*lig	*	*	*	*	*
1F	.	1D	quae	2f,\	-ſti;	.	.
!	!	!	!	!	!	!LO:TX:t=P:problem=kreska pseudotaktowa	!
.	.	.	.	2f\	Quae	2a\	Quae
!LO:TX:t=P:problem=kreska pseudotaktowa	!	!LO:TX:t=P:problem=kreska pseudotaktowa	!	!	!	!	!
1BB-	Ga-	1F	.	1d	Ga-	1b-	Ga-
*	*	*Xlig	*	*	*	*	*
=22-	=22-	=22-	=22-	=22-	=22-	=22-	=22-
*	*	*lig	*	*	*	*	*
2C/	-bri-	1E	Ga-	2c\	-bri-	1g	-bri-
1C	-e-	.	.	1e	-e-	.	.
.	.	1G	.	.	.	1cc	-e-
4BB-/	.	.	.	4d\	.	.	.
!	!	!	!	!LO:TX:t=P:problem=kreska pseudotaktowa	!	!	!
4AA/	.	.	.	4c\	.	.	.
!LO:TX:t=P:problem=kreska pseudotaktowa	!	!	!	!	!	!	!
*	*	*Xlig	*	*	*	*	*
!	!	!	!	!LO:LB:g=original	!	!	!
=23-	=23-	=23-	=23-	=23-	=23-	=23-	=23-
(<4GG/	-lis	1G	-bri-	2d\	-lis	1b-	.
4AA/)	.	.	.	.	.	.	.
4BB-/	ar-	.	.	1d	ar-	.	.
!LO:TX:t=P:problem=kreska pseudotaktowa	!	!	!	!	!	!	!
4C/	.	.	.	.	.	.	.
*	*	*lig	*	*	*	*	*
2.D\	-chan-	1F	-e-	.	.	1a	.
!	!	!	!	!LO:TX:t=P:problem=kreska pseudotaktowa	!	!	!
.	.	.	.	[<2d\	-chan-	.	.
*custos:E	*	*	*	*	*	*	*
!LO:TX:t=P:problem=kreska pseudotaktowa	!	!	!	!	!	!	!
4D\	-ge-	.	.	.	.	.	.
!LO:LB:g=original	!	!	!	!	!	!	!
=24-	=24-	=24-	=24-	=24-	=24-	=24-	=24-
!	!	!	!	!LO:N:xstem:cue	!	!	!
2E,\	-li	1E	.	4d\]	.	2g/	.
.	.	.	.	4c/	.	.	.
2.G\	Ga-	.	.	[<2B-/	.	2e/	.
*	*	*Xlig	*	*	*	*	*
*	*	*lig	*	*	*	*	*
.	.	1D	-lis	2B-/]	.	1f	-lis
4F\	-bri-	.	.	.	.	.	.
!LO:TX:t=P:problem=kreska pseudotaktowa	!	!	!	!LO:TX:t=P:problem=kreska pseudotaktowa	!	!	!
[>2F\	-e-	.	.	2A/	-ge-	.	.
=25-	=25-	=25-	=25-	=25-	=25-	=25-	=25-
*	*	*	*	*	*	*custos:a	*
!	!	!	!	!	!	!LO:TX:t=P:problem=kreska pseudotaktowa	!
!	!	!	!	!LO:TX:t=P:problem=kreska pseudotaktowa	!	!	!
2F\]	.	1C	.	0.c	-li	1g	.
!LO:TX:t=P:problem=kreska pseudotaktowa	!	!	!	!	!	!	!
2E\	.	.	.	.	.	.	.
!	!	!	!	!	!	!LO:LB:g=original	!
!	!	!LO:TX:t=P:problem=kreska pseudotaktowa	!	!	!	!	!
2F,\	-lis	1F	.	.	.	1a,	.
2.FF/	ar-	.	.	.	.	.	.
*	*	*Xlig	*	*	*	*	*
=26-	=26-	=26-	=26-	=26-	=26-	=26-	=26-
*	*	*lig	*	*	*	*	*
.	.	1F	Ar-	.	.	1a	ar-
4GG/	.	.	.	.	.	.	.
4AA/	.	.	.	.	.	.	.
!LO:TX:t=P:problem=kreska pseudotaktowa	!	!	!	!	!	!	!
4BB-/	.	.	.	.	.	.	.
2C/	-chan-	1C	.	2r	.	2.g\	-chan-
!LO:TX:t=P:problem=kreska pseudotaktowa	!	!	!	!	!	!	!
2C/	-ge-	.	.	2c\	Quae	.	.
.	.	.	.	.	.	4g\	-ge-
=27-	=27-	=27-	=27-	=27-	=27-	=27-	=27-
!	!	!	!	!	!	!LO:TX:t=P:problem=kreska pseudotaktowa	!
2FF,/	-li;	1F	.	2c\	Ga-	1a	-li
!LO:TX:t=P:problem=kreska pseudotaktowa	!	!	!	!LO:TX:t=P:problem=kreska pseudotaktowa	!	!	!
2F\	Ga-	.	.	2c\	-bri-	.	.
2D\	-bri-	1A	.	2F/	-e-	1dd	Ga-
!LO:TX:t=P:problem=kreska pseudotaktowa	!	!	!	!	!	!	!
2D\	-e-	.	.	2f\	.	.	.
*	*	*Xlig	*	*	*	*	*
=28-	=28-	=28-	=28-	=28-	=28-	=28-	=28-
!LO:TX:t=P:problem=kreska pseudotaktowa	!	!	!	!	!	!	!
*	*	*lig	*	*	*	*	*
1G,	-lis	1G	-chan-	1d	.	1b-	-bri-
!LO:TX:t=P:problem=kreska pseudotaktowa	!	!	!	!	!	!LO:TX:t=P:problem=kreska pseudotaktowa	!
1C	ar-	1c	.	1e	.	1g	-e-
*	*	*Xlig	*	*	*	*	*
=29-	=29-	=29-	=29-	=29-	=29-	=29-	=29-
2.F\	-chan-	1c	-ge-	2c\	lis	1a	-lis
!	!	!	!	!LO:TX:t=P:problem=kreska pseudotaktowa	!	!	!
.	.	.	.	2f\	.	.	.
!LO:TX:t=P:problem=kreska pseudotaktowa	!	!	!	!	!	!	!
4F\	-ge-	.	.	.	.	.	.
!LO:TX:t=P:problem=kreska pseudotaktowa	!	!LO:TX:t=P:problem=kreska pseudotaktowa	!	!	!	!	!
1C,	-li	1c	-li	2e\	ar-	1g,	.
.	.	.	.	2.e\	-chan-	.	.
=30-	=30-	=30-	=30-	=30-	=30-	=30-	=30-
*	*	*lig	*	*	*	*	*
1C	di-	1c	di-	.	.	1g	ar-
.	.	.	.	4d/	.	.	.
.	.	.	.	1c	.	.	.
!LO:TX:t=P:problem=kreska pseudotaktowa	!	!	!	!	!	!LO:TX:t=P:problem=kreska pseudotaktowa	!
1GG	-ctis	1d	.	.	.	1g	-chan-
!	!	!	!	!LO:TX:t=P:problem=kreska pseudotaktowa	!	!	!
.	.	.	.	2B-/	.	.	.
=31-	=31-	=31-	=31-	=31-	=31-	=31-	=31-
2AA/	cre-	1c	.	2c/	.	2c/	.
!LO:TX:t=P:problem=kreska pseudotaktowa	!	!	!	!	!	!	!
2FF/	-di-	.	.	2A/	-ge-	1f	.
*	*	*Xlig	*	*	*	*	*
*	*	*lig	*	*	*	*	*
!	!	!	!	!LO:TX:t=P:problem=kreska pseudotaktowa	!	!	!
2C/	-di-	1c	-ctis	1G	-li	.	.
!LO:TX:t=P:problem=kreska pseudotaktowa	!	!	!	!	!	!	!
2C/	-ſti	.	.	.	.	2e/	-ge-
=32-	=32-	=32-	=32-	=32-	=32-	=32-	=32-
(>2.D\	di-	1B-	.	1rg	.	2f,/	-li
!	!	!	!	!	!	!LO:TX:t=P:problem=kreska pseudotaktowa	!
.	.	.	.	.	.	2g/	di-
!LO:TX:t=P:problem=kreska pseudotaktowa	!	!	!	!	!	!	!
4E\)	.	.	.	.	.	.	.
!	!	!LO:TX:t=P:problem=kreska pseudotaktowa	!	!	!	!	!
(>2.F\	-ctis	1A	.	2r	.	4d/	-ctis
.	.	.	.	.	.	4e/	.
!	!	!	!	!LO:TX:t=P:problem=kreska pseudotaktowa	!	!	!
.	.	.	.	2c\	di-	4f/	.
*custos:D	*	*	*	*	*	*	*
!LO:TX:t=P:problem=kreska pseudotaktowa	!	!	!	!	!	!	!
4E\)	.	.	.	.	.	4g/	.
*	*	*Xlig	*	*	*	*	*
!LO:LB:g=original	!	!LO:LB:g=original	!	!	!	!	!
=33-	=33-	=33-	=33-	=33-	=33-	=33-	=33-
*	*	*lig	*	*	*	*	*
2.D/	cre-	1F	cre-	1d	-ctis	2a\	cre-
!	!	!	!	!	!	!LO:TX:t=P:problem=kreska pseudotaktowa	!
.	.	.	.	.	.	2b-\	.
8C/L	.	.	.	.	.	.	.
!LO:TX:t=P:problem=kreska pseudotaktowa	!	!	!	!	!	!	!
8BB-/J	.	.	.	.	.	.	.
2AA/	-di-	1A	.	2e\	cre-	1.cc	-di-
!LO:TX:t=P:problem=kreska pseudotaktowa	!	!	!	!	!	!	!
2FF/	.	.	.	1f\	.	.	.
=34-	=34-	=34-	=34-	=34-	=34-	=34-	=34-
!LO:TX:t=P:problem=kreska pseudotaktowa	!	!	!	!	!	!	!
1C	.	1F	.	.	.	.	.
*	*	*	*	*custos:d	*	*	*
!	!	!	!	!LO:TX:t=P:problem=kreska pseudotaktowa	!	!	!
.	.	.	.	2e\	.	2cc\	-di-
!	!	!	!	!LO:LB:g=original	!	!	!
*	*	*Xlig	*	*	*	*	*
!LO:TX:t=P:problem=kreska pseudotaktowa	!	!	!	!	!	!	!
*	*	*lig	*	*	*	*	*
!	!	!	!	!	!	!LO:TX:t=P:problem=kreska pseudotaktowa	!
1BB-,	-ſti;	1B-X	-di-	2d\	.	1dd	.
.	.	.	.	1f\	.	.	.
=35-	=35-	=35-	=35-	=35-	=35-	=35-	=35-
1.C	di-	1G	.	.	.	2cc,\	-sti
.	.	.	.	4e\	-di-	2cc\	ar-
.	.	.	.	4d\	.	.	.
*	*	*Xlig	*	*	*	*	*
.	.	1G	-di-	2e\	-di-	2.cc\	-chan-
!LO:TX:t=P:problem=kreska pseudotaktowa	!	!	!	!LO:TX:t=P:problem=kreska pseudotaktowa	!	!	!
2C/	-ctis	.	.	2e\	-sti	.	.
!	!	!	!	!	!	!LO:TX:t=P:problem=kreska pseudotaktowa	!
.	.	.	.	.	.	4cc\	-ge-
=36-	=36-	=36-	=36-	=36-	=36-	=36-	=36-
!	!	!LO:TX:t=P:problem=kreska pseudotaktowa	!	!	!	!	!
2FF/	cre-	0.F	-sti;	2f\	cre-	2a,\	-li
(<2.BB-/	.	.	.	1d	.	1b-	di-
4C/	.	.	.	.	.	.	.
4D/)	-di-	.	.	4c/	-di-	4a\	-ctis
!LO:TX:t=P:problem=kreska pseudotaktowa	!	!	!	!	!	!LO:TX:t=P:problem=kreska pseudotaktowa	!
4E/	.	.	.	4B-/	.	4g\	.
=37-	=37-	=37-	=37-	=37-	=37-	=37-	=37-
2F\	-di-	.	.	2.A/	-di-	2.f/	cre-
!LO:TX:t=P:problem=kreska pseudotaktowa	!	!	!	!	!	!	!
2FF/	.	.	.	.	.	.	.
*	*	*	*	*	*	*custos:g	*
!	!	!	!	!	!	!LO:TX:t=P:problem=kreska pseudotaktowa	!
.	.	.	.	4B-/	.	4g/	-di-
!	!	!	!	!	!	!LO:LB:g=original	!
!	!	!LO:TX:t=P:problem=kreska pseudotaktowa	!	!	!	!	!
2C,/	-sti	0F	Dum	1.c	-sti	2g\	-di-
!	!	!	!	!	!	!LO:TX:t=P:problem=kreska pseudotaktowa	!
1F\	dum	.	.	.	.	[<2a\	-sti;
=38-	=38-	=38-	=38-	=38-	=38-	=38-	=38-
!	!	!	!	!	!	!LO:N:xstem:cue:vis=4	!
.	.	.	.	.	.	2a\]	.
!LO:TX:t=P:problem=kreska pseudotaktowa	!	!	!	!LO:TX:t=P:problem=kreska pseudotaktowa	!	!	!
2F\	Vir-	.	.	2c/	Dum	2a,\	dum
!LO:TX:t=P:problem=kreska pseudotaktowa	!	!	!	!	!	!	!
*	*	*lig	*	*	*	*	*
!	!	!	!	!	!	!LO:TX:t=P:problem=kreska pseudotaktowa	!
1BB-	.	1D	Vir-	1d	Vir-	1b-	Vir-
=39-	=39-	=39-	=39-	=39-	=39-	=39-	=39-
!	!	!LO:TX:t=P:problem=kreska pseudotaktowa	!	!	!	!	!
2FF,/	-go,	1F	.	2c,\	-go	2a,\	-go
*	*	*	*	*	*ij	*	*ij
!LO:TX:t=P:problem=kreska pseudotaktowa	!	!	!	!	!	!	!
2F\	dum	.	.	2f\	Dum	2cc\	dum
*	*	*Xlig	*	*	*	*	*
*	*	*lig	*	*	*	*	*
!	!	!	!	!LO:TX:t=P:problem=kreska pseudotaktowa	!	!LO:TX:t=P:problem=kreska pseudotaktowa	!
1C	Vir-	1G	.	1e	Vir-	1cc	Vir-
=40-	=40-	=40-	=40-	=40-	=40-	=40-	=40-
!LO:TX:t=P:problem=kreska pseudotaktowa	!	!	!	!	!	!	!
1GG	-go	1B-	.	2d,\	-go	2b-,\	-go
*	*	*	*	*	*Xij	*	*Xij
.	.	.	.	2d\	vir-	2g/	DE-
!	!	!	!	!LO:TX:t=P:problem=kreska pseudotaktowa	!	!LO:TX:t=P:problem=kreska pseudotaktowa	!
2r	.	1A	.	1f	-go	1f	.
!LO:TX:t=P:problem=kreska pseudotaktowa	!	!	!	!	!	!	!
2D\	vir-	.	.	.	.	.	.
*	*	*Xlig	*	*	*	*	*
=41-	=41-	=41-	=41-	=41-	=41-	=41-	=41-
!LO:TX:t=P:problem=kreska pseudotaktowa	!	!	!	!	!	!	!
*	*	*lig	*	*	*	*	*
1F,	-go	1A	-go	2c/	De-	4c/	.
.	.	.	.	.	.	4e/	.
.	.	.	.	4A/	.	4f/	.
.	.	.	.	4B-/	.	4g/	.
!	!	!LO:TX:t=P:problem=kreska pseudotaktowa	!	!	!	!	!
1F	De-	1c	.	2c\	.	2a\	-UM
.	.	.	.	2f\	.	2f/	.
*	*	*Xlig	*	*	*	*	*
=42-	=42-	=42-	=42-	=42-	=42-	=42-	=42-
!	!	!	!	!	!	!LO:TX:t=P:problem=kreska pseudotaktowa	!
2C,/	-um	1c	De-	2e\	-um	1g	et
!LO:TX:t=P:problem=kreska pseudotaktowa	!	!	!	!	!	!	!
2C/	et	.	.	2e\	et	.	.
!	!	!LO:TX:t=P:problem=kreska pseudotaktowa	!	!	!	!	!
2.D/	ho-	1A,	-um	2.d\	ho-	4f/	Ho-
.	.	.	.	.	.	4g/	.
.	.	.	.	.	.	4a/	.
!	!	!	!	!LO:TX:t=P:problem=kreska pseudotaktowa	!	!LO:TX:t=P:problem=kreska pseudotaktowa	!
4D/	-mi-	.	.	4d\	-mi-	4f/	.
=43-	=43-	=43-	=43-	=43-	=43-	=43-	=43-
!LO:TX:t=P:problem=kreska pseudotaktowa	!	!LO:TX:t=P:problem=kreska pseudotaktowa	!	!	!	!	!
1BB-,	-nem	1B-	et	2.d\	-nem	4g/	.
.	.	.	.	.	.	4f/	.
.	.	.	.	.	.	1f	.
.	.	.	.	4d\	et	.	.
1C	et	1G	Ho-	2c\	ho-	.	.
*	*	*	*	*custos:d	*	*	*
!	!	!	!	!LO:TX:t=P:problem=kreska pseudotaktowa	!	!	!
.	.	.	.	2e\	.	2e/	-mi-
!	!	!	!	!LO:LB:g=original	!	!	!
=44-	=44-	=44-	=44-	=44-	=44-	=44-	=44-
!LO:TX:t=P:problem=kreska pseudotaktowa	!	!	!	!	!	!LO:TX:t=P:problem=kreska pseudotaktowa	!
1D	ho-	1F	-mi-	2d\	.	1f	-nem
.	.	.	.	2f\	-mi-	.	.
!LO:LB:g=original	!	!	!	!	!	!	!
*	*	*lig	*	*	*	*	*
2C/	.	1G	-nem	2e\	-nem	2r	.
!	!	!	!	!LO:TX:t=P:problem=kreska pseudotaktowa	!	!	!
1BB-/	.	.	.	[<2d\	ge-	2b-\	et
=45-	=45-	=45-	=45-	=45-	=45-	=45-	=45-
!	!	!LO:TX:t=P:problem=kreska pseudotaktowa	!	!LO:N:xstem:cue	!	!	!
.	.	1F	.	4d\]	.	2b-\	ho-
.	.	.	.	4d\	-nu-	.	.
!	!	!	!	!	!	!LO:TX:t=P:problem=kreska pseudotaktowa	!
!LO:TX:t=P:problem=kreska pseudotaktowa	!	!	!	!	!	!	!
2C/	-mi-	.	.	1c	-i-	2a\	-mi-
*	*	*Xlig	*	*	*	*	*
!LO:TX:t=P:problem=kreska pseudotaktowa	!	!	!	!	!	!	!
*	*	*lig	*	*	*	*	*
1D	-nem	1F	ge-	.	.	2a\	-nem
.	.	.	.	2B-/	.	(<4g/	.
!	!	!	!	!	!	!LO:TX:t=P:problem=kreska pseudotaktowa	!
.	.	.	.	.	.	4f/)	.
=46-	=46-	=46-	=46-	=46-	=46-	=46-	=46-
!LO:TX:t=P:problem=kreska pseudotaktowa	!	!	!	!LO:TX:t=P:problem=kreska pseudotaktowa	!	!	!
1C	ge-	1E	.	1c	.	2g\	ge-
!	!	!	!	!	!	!LO:TX:t=P:problem=kreska pseudotaktowa	!
.	.	.	.	.	.	2a\	.
*	*	*Xlig	*	*	*	*	*
!LO:TX:t=P:problem=kreska pseudotaktowa	!	!	!	!	!	!	!
1BB-	-nu-	1D	-nu-	1d	.	2.b-\	.
!	!	!	!	!	!	!LO:TX:t=P:problem=kreska pseudotaktowa	!
.	.	.	.	.	.	4a\	-nu-
!	!	!	!	!	!	!LO:LB:g=original	!
=47-	=47-	=47-	=47-	=47-	=47-	=47-	=47-
!LO:TX:t=P:problem=kreska pseudotaktowa	!	!	!	!	!	!LO:TX:t=P:problem=kreska pseudotaktowa	!
1C	-i-	1E	-i-	1c	.	1g	-i-
!LO:TX:t=P:problem=kreska pseudotaktowa	!	!LO:TX:t=P:problem=kreska pseudotaktowa	!	!	!	!	!
1FF	-sti,	1F	-sti,	2c,/	-sti	1.a	-sti
!	!	!	!	!LO:TX:t=P:problem=kreska pseudotaktowa	!	!	!
.	.	.	.	[<2c/	et	.	.
=48-	=48-	=48-	=48-	=48-	=48-	=48-	=48-
!LO:TX:t=P:problem=kreska pseudotaktowa	!	!	!	!	!	!	!
*	*	*lig	*	*	*	*	*
1rA	.	1F	et	2c/]	.	.	.
!	!	!	!	!LO:TX:t=P:problem=kreska pseudotaktowa	!	!LO:TX:t=P:problem=kreska pseudotaktowa	!
.	.	.	.	2c/	post	2a\	et
2r	.	1E	.	2d\	par-	2a\	.
!LO:TX:t=P:problem=kreska pseudotaktowa	!	!	!	!	!	!	!
[>2F\	et	.	.	2B-,/	-tum	2f/	post
=49-	=49-	=49-	=49-	=49-	=49-	=49-	=49-
*	*	*	*	*	*ij	*	*
!	!	!LO:TX:t=P:problem=kreska pseudotaktowa	!	!	!	!	!
2F\]	.	1D	.	2c/	et	2g\	par-
!	!	!	!	!	!	!LO:TX:t=P:problem=kreska pseudotaktowa	!
!LO:TX:t=P:problem=kreska pseudotaktowa	!	!	!	!LO:TX:t=P:problem=kreska pseudotaktowa	!	!	!
2E\	post	.	.	2c/	post	2g\	-tum
!	!	!LO:LB:g=original	!	!	!	!	!
*	*	*Xlig	*	*	*	*	*
!	!	!LO:TX:t=P:problem=kreska pseudotaktowa	!	!	!	!	!
2D/	pa-	1F	post	2.d\	par-	2a\	par-
2BB-,/	-rtu(m)	.	.	.	.	2.b-\	.
.	.	.	.	4c/	-tum	.	.
=50-	=50-	=50-	=50-	=50-	=50-	=50-	=50-
*	*	*lig	*	*	*	*	*
!LO:TX:t=P:problem=kreska pseudotaktowa	!	!	!	!	!	!	!
1D	Vir-	1F	par-	(>4d\	et	.	.
.	.	.	.	4e\	post	4g\	.
.	.	.	.	1f)	par-	4a\	.
.	.	.	.	.	.	4b-\	.
!LO:TX:t=P:problem=kreska pseudotaktowa	!	!	!	!	!	!LO:TX:t=P:problem=kreska pseudotaktowa	!
1C,	-go	1G	.	.	.	1cc	.
!	!	!	!	!LO:TX:t=P:problem=kreska pseudotaktowa	!	!	!
.	.	.	.	2e,\	-tum	.	.
*	*	*	*	*	*Xij	*	*
=51-	=51-	=51-	=51-	=51-	=51-	=51-	=51-
!	!	!LO:TX:t=P:problem=kreska pseudotaktowa	!	!	!	!	!
2FF,/	post	1F	-tum	2f\	Vir-	2a,\	tum
!LO:TX:t=P:problem=kreska pseudotaktowa	!	!	!	!	!	!LO:TX:t=P:problem=kreska pseudotaktowa	!
2BB-/	par-	.	.	2d\	.	2d/	Vir-
*	*	*Xlig	*	*	*	*	*
*	*	*lig	*	*	*	*	*
2AA/	.	1A	Vir-	2c/	-go	2e/	-go
!LO:TX:t=P:problem=kreska pseudotaktowa	!	!	!	!LO:TX:t=P:problem=kreska pseudotaktowa	!	!LO:TX:t=P:problem=kreska pseudotaktowa	!
2FF/	-tum	.	.	2A/	in-	2f/	in-
=52-	=52-	=52-	=52-	=52-	=52-	=52-	=52-
4GG/	.	1G	.	1B-	-vio-	2d/	-vi-
4AA/	.	.	.	.	.	.	.
4BB-/	Vir-	.	.	.	.	4d/	-o-
!LO:TX:t=P:problem=kreska pseudotaktowa	!	!	!	!	!	!LO:TX:t=P:problem=kreska pseudotaktowa	!
4C/	.	.	.	.	.	4e/	.
*	*	*Xlig	*	*	*	*	*
!	!	!LO:TX:t=P:problem=kreska pseudotaktowa	!	!	!	!	!
2D\	.	1F	-go	2.A/	.	4f/	-la-
.	.	.	.	.	.	4g/	.
4C/	.	.	.	.	.	1a\	.
!LO:TX:t=P:problem=kreska pseudotaktowa	!	!	!	!	!	!	!
4BB-/	.	.	.	4B-/	.	.	.
=53-	=53-	=53-	=53-	=53-	=53-	=53-	=53-
1AA,	-go	1A	in-	2c\	-la-	.	.
.	.	.	.	1d	.	4g/	.
!	!	!	!	!	!	!LO:TX:t=P:problem=kreska pseudotaktowa	!
.	.	.	.	.	.	4f/	.
!LO:TX:t=P:problem=kreska pseudotaktowa	!	!	!	!	!	!	!
1AA	in-	1A	-vio-	.	.	2e/	-ta
!	!	!	!	!LO:TX:t=P:problem=kreska pseudotaktowa	!	!	!
.	.	.	.	2c\	.	1a\	in-
!	!	!	!	!LO:LB:g=original	!	!	!
=54-	=54-	=54-	=54-	=54-	=54-	=54-	=54-
2D\	-vi-	1F	-la-	1d	-ta	.	.
2D\	-o-	.	.	.	.	1f	-vi-
!LO:TX:t=P:problem=kreska pseudotaktowa	!	!	!	!	!	!	!
*	*	*lig	*	*	*	*	*
1BB-	-la-	1F	.	2r	.	.	.
!	!	!	!	!LO:TX:t=P:problem=kreska pseudotaktowa	!	!	!
.	.	.	.	2d\	in-	1d/	-o-
!LO:LB:g=original	!	!	!	!	!	!	!
=55-	=55-	=55-	=55-	=55-	=55-	=55.-	=55-
2GG,/	-ta	1G	.	1B-	-vio-	.	.
!	!	!	!	!	!	!LO:TX:t=P:problem=kreska pseudotaktowa	!
!LO:TX:t=P:problem=kreska pseudotaktowa	!	!	!	!	!	!	!
2GG/	in-	.	.	.	.	2g/	-la-
*	*	*Xlig	*	*	*	*	*
*	*	*lig	*	*	*	*	*
!	!	!	!	!	!	!LO:TX:t=P:problem=kreska pseudotaktowa	!
2C/	-vi-	1G	-ta	2G/	.	1e	-ta
!LO:TX:t=P:problem=kreska pseudotaktowa	!	!	!	!	!	!	!
2C/	-o-	.	.	1c\	-la-	.	.
=56-	=56-	=56-	=56-	=56-	=56-	=56-	=56-
!	!	!LO:TX:t=P:problem=kreska pseudotaktowa	!	!	!	!	!
2FF/	-la-	1F	.	.	.	4f/	per-
.	.	.	.	.	.	4g/	.
2.FF/	-ta	.	.	4F/	.	4a/	.
!	!	!	!	!LO:TX:t=P:problem=kreska pseudotaktowa	!	!	!
.	.	.	.	4G/	.	4b-/	.
*	*	*Xlig	*	*	*	*	*
*	*	*lig	*	*	*	*	*
.	.	1F	per-	4A/	.	2cc\	.
4GG/	.	.	.	4B-/	.	.	.
!	!	!	!	!	!	!LO:TX:t=P:problem=kreska pseudotaktowa	!
4AA/	.	.	.	(<4c/	-ta	2a\	-man-
!LO:TX:t=P:problem=kreska pseudotaktowa	!	!	!	!	!	!	!
4BB-/	.	.	.	4d/)	.	.	.
!	!	!	!	!	!	!LO:LB:g=original	!
=57-	=57-	=57-	=57-	=57-	=57-	=57-	=57-
2C/	per-	1E	.	2e\	per-	2g\	-si-
!LO:TX:t=P:problem=kreska pseudotaktowa	!	!	!	!	!	!	!
2AA/	-man-	.	.	2c\	.	2a\	.
*	*	*Xlig	*	*	*	*	*
!	!	!	!	!	!	!LO:TX:t=P:problem=kreska pseudotaktowa	!
0BB-	-si-	1D	-man-	2d\	-man-	1f	.
.	.	.	.	1d\	-si-	.	.
=58-	=58-	=58-	=58-	=58-	=58-	=58-	=58-
.	.	1F	-si-	.	.	2b-,\	sti:
.	.	.	.	4c/	.	2b-\	De-
.	.	.	.	4B-/	.	.	.
!LO:TX:t=P:problem=kreska pseudotaktowa	!	!LO:TX:t=P:problem=kreska pseudotaktowa	!	!LO:TX:t=P:problem=kreska pseudotaktowa	!	!	!
1F,	-sti:	1F	-ſti:	1c	-sti.	(>2a\	.
.	.	.	.	.	.	2f/)	-i
=59-	=59-	=59-	=59-	=59-	=59-	=59-	=59-
!LO:TX:t=P:problem=kreska pseudotaktowa	!	!	!	!LO:TX:t=P:problem=kreska pseudotaktowa	!	!	!
1rA	.	0F	De-	0re	.	2.cc\	Ge-
!	!	!	!	!	!	!LO:TX:t=P:problem=kreska pseudotaktowa	!
.	.	.	.	.	.	4cc\	-ni-
!LO:TX:t=P:problem=kreska pseudotaktowa	!	!	!	!	!	!	!
1F	De-	.	.	.	.	2cc,\	-trix
.	.	.	.	.	.	2dd\	De-
=60-	=60-	=60-	=60-	=60-	=60-	=60-	=60-
!LO:TX:t=P:problem=kreska pseudotaktowa	!	!LO:TX:t=P:problem=kreska pseudotaktowa	!	!	!	!	!
1D,	-i	0F	-i	1f	De-	2dd\	.
!	!	!	!	!	!	!LO:TX:t=P:problem=kreska pseudotaktowa	!
.	.	.	.	.	.	2a\	.
!LO:TX:t=P:problem=kreska pseudotaktowa	!	!	!	!	!	!	!
1BB-	Ge-	.	.	1d	.	2b-\	-i
.	.	.	.	.	.	4b-\	Ge-
!	!	!	!	!	!	!LO:TX:t=P:problem=kreska pseudotaktowa	!
.	.	.	.	.	.	4a\	.
=61-	=61-	=61-	=61-	=61-	=61-	=61-	=61-
!	!	!LO:TX:t=P:problem=kreska pseudotaktowa	!	!	!	!	!
2.E-X\	.	1G	Ge-	1B-	-i	4g\	.
.	.	.	.	.	.	4a\	.
.	.	.	.	.	.	1b-	.
!LO:TX:t=P:problem=kreska pseudotaktowa	!	!	!	!	!	!	!
4D/	.	.	.	.	.	.	.
2.C/	.	1E-X	-ni-	2.e-X\	Ge-	.	.
!	!	!	!	!	!	!LO:TX:t=P:problem=kreska pseudotaktowa	!
.	.	.	.	.	.	2a\	-ni-
!LO:TX:t=P:problem=kreska pseudotaktowa	!	!	!	!LO:TX:t=P:problem=kreska pseudotaktowa	!	!	!
4C/	-ni-	.	.	4e-\	-ni-	.	.
=62-	=62-	=62-	=62-	=62-	=62-	=62-	=62-
*	*	*lig	*	*	*	*	*
2BB-,/	-trix	1F	-trix	2d,\	-trix	2b-,\	-trix
1F	De-	.	.	2c/	De-	2a\	De-
!	!	!	!	!LO:TX:t=P:problem=kreska pseudotaktowa	!	!LO:TX:t=P:problem=kreska pseudotaktowa	!
.	.	1C,	.	1c	.	1g	.
!LO:TX:t=P:problem=kreska pseudotaktowa	!	!	!	!	!	!	!
2E\	-i	.	.	.	.	.	.
*	*	*Xlig	*	*	*	*	*
=63-	=63-	=63-	=63-	=63-	=63-	=63-	=63-
!LO:TX:t=P:problem=kreska pseudotaktowa	!	!	!	!	!	!	!
*	*	*lig	*	*	*	*	*
1D	Ge-	1F	Ge-	2d\	-i	1a	.
.	.	.	.	2.d\	Ge-	.	.
!LO:TX:t=P:problem=kreska pseudotaktowa	!	!	!	!	!	!LO:TX:t=P:problem=kreska pseudotaktowa	!
1BB-	.	1B-	.	.	.	1dd	-i
.	.	.	.	4e\	.	.	.
!	!	!	!	!LO:TX:t=P:problem=kreska pseudotaktowa	!	!	!
.	.	.	.	[>2f\	.	.	.
=64-	=64-	=64-	=64-	=64-	=64-	=64-	=64-
2.C/	-ni-	1G	.	2f\]	.	2.cc\	Ge-
.	.	.	.	2e\	-ni-	.	.
!LO:TX:t=P:problem=kreska pseudotaktowa	!	!	!	!	!	!	!
4C/	.	.	.	.	.	4cc\	-ni-
*	*	*Xlig	*	*	*	*	*
2FF,/	-trix	1.F	.	2f,\	-trix	2a,\	-trix
!	!	!	!	!LO:TX:t=P:problem=kreska pseudotaktowa	!	!LO:TX:t=P:problem=kreska pseudotaktowa	!
2BB-/	in-	.	.	2d\	in-	2b-\	in-
!	!	!	!	!LO:LB:g=original	!	!	!
=65-	=65-	=65-	=65-	=65-	=65-	=65-	=65-
!LO:TX:t=P:problem=kreska pseudotaktowa	!	!	!	!LO:TX:t=P:problem=kreska pseudotaktowa	!	!	!
1BB-	-ter-	.	.	1d	-ter-	1b-	-ter-
!LO:LB:g=original	!	!	!	!	!	!	!
!	!	!LO:TX:t=P:problem=kreska pseudotaktowa	!	!	!	!	!
.	.	2F/	-ni-	.	.	.	.
!	!	!LO:LB:g=original	!	!	!	!	!
!	!	!LO:TX:t=P:problem=kreska pseudotaktowa	!	!	!	!LO:TX:t=P:problem=kreska pseudotaktowa	!
1FF	-ce-	1F,	-trix	1c	-ce-	[<1a	-ce-
=66-	=66-	=66-	=66-	=66-	=66-	=66-	=66-
!LO:TX:t=P:problem=kreska pseudotaktowa	!	!	!	!	!	!	!
*	*	*lig	*	*	*	*	*
!	!	!	!	!	!	!LO:N:xstem:cue	!
1BB-	.	1D	in-	1B-	.	4a\]	.
.	.	.	.	.	.	4g/	.
!	!	!	!	!	!	!LO:TX:t=P:problem=kreska pseudotaktowa	!
.	.	.	.	.	.	[<2f/	.
!LO:TX:t=P:problem=kreska pseudotaktowa	!	!	!	!	!	!	!
1C	.	1C	.	1G	.	2f/]	.
*	*	*	*	*	*	*custos:f	*
!	!	!	!	!	!	!LO:TX:t=P:problem=kreska pseudotaktowa	!
.	.	.	.	.	.	2e/	.
!	!	!	!	!	!	!LO:LB:g=original	!
*	*	*Xlig	*	*	*	*	*
=67-	=67-	=67-	=67-	=67-	=67-	=67-	=67-
*	*	*lig	*	*	*	*	*
2FF,/	-de	1F	-ter-	2A/	.	2f/	-de
1BB-	in-	.	.	1d	.	1d	pro
.	.	1G	.	.	.	.	.
!LO:TX:t=P:problem=kreska pseudotaktowa	!	!	!	!	!	!	!
2C/	-ter-	.	.	4c/	.	2e/	.
!	!	!	!	!LO:TX:t=P:problem=kreska pseudotaktowa	!	!	!
.	.	.	.	4B-/	.	.	.
=68-	=68-	=68-	=68-	=68-	=68-	=68-	=68-
!LO:TX:t=P:problem=kreska pseudotaktowa	!	!	!	!	!	!LO:TX:t=P:problem=kreska pseudotaktowa	!
1D	-ce-	1D	.	1A	-de	0f	no-
*	*	*Xlig	*	*	*	*	*
!LO:TX:t=P:problem=kreska pseudotaktowa	!	!	!	!	!	!	!
*	*	*lig	*	*	*	*	*
!	!	!	!	!LO:TX:t=P:problem=kreska pseudotaktowa	!	!	!
1D,	-de	1F	-ce-	1d	in-	.	.
=69-	=69-	=69-	=69-	=69-	=69-	=69-	=69-
1GG	pro	1G	.	2B-/	-ter-	1.d,	-bis
.	.	.	.	2B-/	-ce-	.	.
!LO:TX:t=P:problem=kreska pseudotaktowa	!	!	!	!	!	!	!
1FF	.	1A	.	1c	-de	.	.
.	.	.	.	.	.	[<2f/	in-
!	!	!	!	!	!	!LO:TX:t=P:problem=kreska pseudotaktowa	!
*	*	*Xlig	*	*	*	*	*
=70-	=70-	=70-	=70-	=70-	=70-	=70-	=70-
!LO:TX:t=P:problem=kreska pseudotaktowa	!	!LO:TX:t=P:problem=kreska pseudotaktowa	!	!LO:TX:t=P:problem=kreska pseudotaktowa	!	!	!
1BB-	no-	1D	-de	1d	pro	2f/]	.
.	.	.	.	.	.	1g	-ter-
!LO:TX:t=P:problem=kreska pseudotaktowa	!	!	!	!	!	!	!
*	*	*lig	*	*	*	*	*
1C	.	1C	pro	2G/	no-	.	.
.	.	.	.	2c/	.	1a\	-ce-
=71-	=71-	=71-	=71-	=71-	=71-	=71-	=71-
4D/	.	1F	.	2A/	.	.	.
4C/	.	.	.	.	.	.	.
!	!	!	!	!	!	!LO:TX:t=P:problem=kreska pseudotaktowa	!
4BB-/	.	.	.	2d/	.	2d/	-de
!LO:TX:t=P:problem=kreska pseudotaktowa	!	!	!	!	!	!	!
4AA/	.	.	.	.	.	.	.
2.GG/	.	1G	.	2.B-/	.	1dd	pro
!LO:TX:t=P:problem=kreska pseudotaktowa	!	!	!	!	!	!	!
4AA/	.	.	.	4c/	.	.	.
*	*	*Xlig	*	*	*	*	*
=72-	=72-	=72-	=72-	=72-	=72-	=72-	=72-
!LO:TX:t=P:problem=kreska pseudotaktowa	!	!	!	!	!	!	!
*	*	*lig	*	*	*	*	*
!	!	!	!	!	!	!LO:TX:t=P:problem=kreska pseudotaktowa	!
1BB-	.	1D	no-	1d	.	1b-X	.
1C	.	1E	.	1c	.	1g	no-
*	*	*Xlig	*	*	*	*	*
=73-	=73-	=73-	=73-	=73-	=73-	=73-	=73-
0FF;>	-bis.	0F;>	-bis.	0c;>	-bis.	0a;>	-bis.
==	==	==	==	==	==	==	==
*-	*-	*-	*-	*-	*-	*-	*-
!!!system-decoration: [(s1,s2,s3,s4)]
!!!RDF**kern: > = above
!!!RDF**kern: < = below
!!!EED: Antoni Szymański
!!!EEV: 2021-03-14
!!!ENC: Andrzej Kubiczek
!!!END: 2021-02-28
